src/assets/img/bg-pattern-desktop.svg

<svg width="434" height="250" viewBox="0 0 434 250" fill="none" xmlns="http://www.w3.org/2000/svg">
<g clip-path="url(#clip0_97_2)">
<path fill-rule="evenodd" clip-rule="evenodd" d="M374.872 -183.487C291.784 -209.517 206.349 -252.933 118.882 -173.633C31.415 -94.3332 -23.575 -24.8652 11.936 65.0158C47.446 154.897 192.399 98.9138 234.516 179.246C276.632 259.578 184.092 332.486 223.988 403.982C263.884 475.478 294.561 521.3 422.773 475.841C550.985 430.381 539.164 314.714 636.663 246.98C734.163 179.246 839.651 77.8458 694.885 -103.09C550.119 -284.025 457.96 -157.457 374.872 -183.487V-183.487Z" stroke="url(#paint0_linear_97_2)"/>
<path fill-rule="evenodd" clip-rule="evenodd" d="M384.984 -142.161C317.427 -163.299 247.962 -198.556 176.845 -134.159C105.729 -69.7621 61.0194 -13.3511 89.8914 59.6379C118.764 132.628 236.62 87.1649 270.864 152.4C305.107 217.635 229.866 276.841 262.304 334.9C294.743 392.959 319.685 430.17 423.931 393.254C528.177 356.338 518.565 262.408 597.839 207.404C677.113 152.4 762.882 70.0569 645.177 -76.8741C527.472 -223.804 452.54 -121.024 384.984 -142.161Z" stroke="url(#paint1_linear_97_2)"/>
<path fill-rule="evenodd" clip-rule="evenodd" d="M404.804 -113.49C349.955 -130.722 293.557 -159.464 235.817 -106.967C178.077 -54.4711 141.777 -8.48508 165.219 51.0159C188.661 110.516 284.349 73.4559 312.151 126.636C339.953 179.815 278.865 228.08 305.201 275.409C331.538 322.739 351.788 353.072 436.425 322.979C521.062 292.885 513.259 216.314 577.621 171.475C641.983 126.635 711.619 59.5089 616.055 -60.2681C520.49 -180.046 459.653 -96.2581 404.805 -113.491L404.804 -113.49Z" stroke="url(#paint2_linear_97_2)"/>
<path fill-rule="evenodd" clip-rule="evenodd" d="M424.91 -80.1228C380.705 -93.9588 335.251 -117.038 288.716 -74.8848C242.182 -32.7318 212.926 4.19416 231.818 51.9712C250.711 99.7482 327.829 69.9892 350.236 112.691C372.643 155.391 323.41 194.147 344.636 232.151C365.861 270.154 382.182 294.511 450.394 270.347C518.607 246.183 512.317 184.699 564.19 148.695C616.062 112.69 672.184 58.7902 595.165 -37.3868C518.145 -133.564 469.115 -66.2868 424.91 -80.1228V-80.1228Z" stroke="url(#paint3_linear_97_2)"/>
<path fill-rule="evenodd" clip-rule="evenodd" d="M430.256 -58.5598C394.196 -69.8768 357.119 -88.7538 319.159 -54.2748C281.199 -19.7968 257.335 10.4062 272.746 49.4852C288.157 88.5642 351.065 64.2232 369.343 99.1502C387.621 134.078 347.46 165.777 364.773 196.862C382.088 227.947 395.402 247.87 451.044 228.105C506.686 208.34 501.556 158.049 543.87 128.6C586.183 99.1502 631.963 55.0632 569.137 -23.6038C506.31 -102.272 466.315 -47.2418 430.256 -58.5598V-58.5598Z" stroke="url(#paint4_linear_97_2)"/>
<path fill-rule="evenodd" clip-rule="evenodd" d="M440.955 -42.4978C411.63 -51.6618 381.476 -66.9458 350.605 -39.0288C319.735 -11.1128 300.327 13.3412 312.86 44.9832C325.393 76.6242 376.553 56.9162 391.417 85.1962C406.282 113.476 373.621 139.142 387.702 164.311C401.782 189.48 412.61 205.611 457.862 189.607C503.112 173.604 498.94 132.885 533.352 109.041C567.763 85.1962 604.994 49.5002 553.9 -14.1958C502.807 -77.8898 470.28 -33.3348 440.955 -42.4978Z" stroke="url(#paint5_linear_97_2)"/>
</g>
<defs>
<linearGradient id="paint0_linear_97_2" x1="383.5" y1="-219" x2="383.5" y2="494" gradientUnits="userSpaceOnUse">
<stop stop-color="#810070"/>
<stop offset="0.416667" stop-color="#273C4D" stop-opacity="0.68125"/>
<stop offset="0.666667" stop-color="#F48C06" stop-opacity="0.49"/>
<stop offset="1" stop-color="#810070"/>
</linearGradient>
<linearGradient id="paint1_linear_97_2" x1="392" y1="-171" x2="392" y2="408" gradientUnits="userSpaceOnUse">
<stop stop-color="#810070"/>
<stop offset="0.416667" stop-color="#273C4D" stop-opacity="0.68125"/>
<stop offset="0.666667" stop-color="#F48C06" stop-opacity="0.49"/>
<stop offset="1" stop-color="#810070"/>
</linearGradient>
<linearGradient id="paint2_linear_97_2" x1="410.5" y1="-137" x2="410.5" y2="335" gradientUnits="userSpaceOnUse">
<stop stop-color="#810070"/>
<stop offset="0.416667" stop-color="#273C4D" stop-opacity="0.68125"/>
<stop offset="0.666667" stop-color="#F48C06" stop-opacity="0.49"/>
<stop offset="1" stop-color="#810070"/>
</linearGradient>
<linearGradient id="paint3_linear_97_2" x1="429.5" y1="-99" x2="429.5" y2="280" gradientUnits="userSpaceOnUse">
<stop stop-color="#810070"/>
<stop offset="0.416667" stop-color="#273C4D" stop-opacity="0.68125"/>
<stop offset="0.666667" stop-color="#F48C06" stop-opacity="0.49"/>
<stop offset="1" stop-color="#810070"/>
</linearGradient>
<linearGradient id="paint4_linear_97_2" x1="434" y1="-74" x2="434" y2="236.001" gradientUnits="userSpaceOnUse">
<stop stop-color="#810070"/>
<stop offset="0.416667" stop-color="#273C4D" stop-opacity="0.68125"/>
<stop offset="0.666667" stop-color="#F48C06" stop-opacity="0.49"/>
<stop offset="1" stop-color="#810070"/>
</linearGradient>
<linearGradient id="paint5_linear_97_2" x1="444" y1="-55" x2="444" y2="196" gradientUnits="userSpaceOnUse">
<stop stop-color="#810070"/>
<stop offset="0.416667" stop-color="#273C4D" stop-opacity="0.68125"/>
<stop offset="0.666667" stop-color="#F48C06" stop-opacity="0.49"/>
<stop offset="1" stop-color="#810070"/>
</linearGradient>
<clipPath id="clip0_97_2">
<rect width="434" height="250" fill="white"/>
</clipPath>
</defs>
</svg>

<svg xmlns="http://www.w3.org/2000/svg" width="434" height="250"><g fill="none" fill-rule="evenodd" stroke="#9E96C6"><path d="M374.872-183.487c-83.088-26.03-168.523-69.446-255.99 9.854C31.415-94.333-23.575-24.865 11.936 65.016c35.51 89.881 180.463 33.898 222.58 114.23 42.116 80.332-50.424 153.24-10.528 224.736 39.896 71.496 70.573 117.318 198.785 71.859 128.212-45.46 116.391-161.127 213.89-228.861 97.5-67.734 202.988-169.134 58.222-350.07-144.766-180.935-236.925-54.367-320.013-80.397z"/><path d="M384.985-142.161c-67.557-21.138-137.022-56.395-208.139 8.002C105.73-69.762 61.02-13.351 89.892 59.638c28.873 72.99 146.729 27.527 180.973 92.762 34.243 65.235-40.998 124.441-8.56 182.5 32.439 58.059 57.381 95.27 161.627 58.354 104.246-36.916 94.634-130.846 173.908-185.85C677.114 152.4 762.883 70.057 645.178-76.874c-117.705-146.93-192.637-44.15-260.193-65.287z"/><path d="M404.804-113.49c-54.849-17.232-111.247-45.974-168.987 6.523-57.74 52.496-94.04 98.482-70.598 157.983 23.442 59.5 119.13 22.44 146.932 75.62 27.802 53.179-33.286 101.444-6.95 148.773 26.337 47.33 46.587 77.663 131.224 47.57 84.637-30.094 76.834-106.665 141.196-151.504 64.362-44.84 133.998-111.966 38.434-231.743-95.565-119.778-156.402-35.99-211.25-53.223z"/><path d="M424.91-80.123c-44.205-13.836-89.659-36.915-136.194 5.238-46.534 42.153-75.79 79.079-56.898 126.856 18.893 47.777 96.011 18.018 118.418 60.72 22.407 42.7-26.826 81.456-5.6 119.46 21.225 38.003 37.546 62.36 105.758 38.196 68.213-24.164 61.923-85.648 113.796-121.652 51.872-36.005 107.994-89.905 30.975-186.082-77.02-96.177-126.05-28.9-170.255-42.736z"/><path d="M430.256-58.56c-36.06-11.317-73.137-30.194-111.097 4.285-37.96 34.478-61.824 64.681-46.413 103.76 15.411 39.079 78.319 14.738 96.597 49.665 18.278 34.928-21.883 66.627-4.57 97.712 17.315 31.085 30.629 51.008 86.271 31.243 55.642-19.765 50.512-70.056 92.826-99.505 42.313-29.45 88.093-73.537 25.267-152.204-62.827-78.668-102.822-23.638-138.881-34.956z"/><path d="M440.955-42.498c-29.325-9.164-59.479-24.448-90.35 3.469-30.87 27.916-50.278 52.37-37.745 84.012 12.533 31.641 63.693 11.933 78.557 40.213 14.865 28.28-17.796 53.946-3.715 79.115 14.08 25.169 24.908 41.3 70.16 25.296 45.25-16.003 41.078-56.722 75.49-80.566C567.763 85.196 604.994 49.5 553.9-14.196 502.807-77.89 470.28-33.335 440.955-42.498z"/></g></svg>
